source/img/icon-bike.svg

<svg fill="currentColor" xmlns="http://www.w3.org/2000/svg" viewBox="0 0 24 21"><path d="M16 3.6c1 0 1.8-.8 1.8-1.8S17 0 16 0s-1.8.8-1.8 1.8.8 1.8 1.8 1.8zm3 7.4c-2.8 0-5 2.3-5 5s2.2 5 5 5 5-2.3 5-5-2.2-5-5-5zm0 8.6c-1.9 0-3.5-1.6-3.5-3.5s1.6-3.5 3.5-3.5 3.5 1.6 3.5 3.5-1.6 3.5-3.5 3.5zM14.8 8.9H19V7.1h-3.2l-1.9-3.3c-.3-.5-.8-.8-1.5-.8-.5 0-.9.2-1.2.5L7.5 7.2c-.3.3-.5.7-.5 1.2 0 .6.3 1.2.8 1.5l3.3 2v5H13v-6.5l-2.2-1.7 2.3-2.4 1.7 2.6zM5 11c-2.8 0-5 2.3-5 5s2.2 5 5 5 5-2.3 5-5-2.2-5-5-5zm0 8.6c-1.9 0-3.5-1.6-3.5-3.5s1.6-3.5 3.5-3.5 3.5 1.5 3.5 3.5-1.6 3.5-3.5 3.5z"/></svg>

<?xml version="1.0" encoding="utf-8"?>
<!-- Generator: Adobe Illustrator 21.0.0, SVG Export Plug-In . SVG Version: 6.00 Build 0)  -->
<svg version="1.1" id="Layer_1" xmlns="http://www.w3.org/2000/svg" xmlns:xlink="http://www.w3.org/1999/xlink" x="0px" y="0px"
    viewBox="0 0 24 21" style="enable-background:new 0 0 24 21;" xml:space="preserve">
<path d="M16,3.6c1,0,1.8-0.8,1.8-1.8S17,0,16,0s-1.8,0.8-1.8,1.8S15,3.6,16,3.6z M19,11c-2.8,0-5,2.3-5,5s2.2,5,5,5s5-2.3,5-5
  S21.8,11,19,11z M19,19.6c-1.9,0-3.5-1.6-3.5-3.5s1.6-3.5,3.5-3.5s3.5,1.6,3.5,3.5S20.9,19.6,19,19.6z M14.8,8.9H19V7.1h-3.2
  l-1.9-3.3C13.6,3.3,13.1,3,12.4,3c-0.5,0-0.9,0.2-1.2,0.5L7.5,7.2C7.2,7.5,7,7.9,7,8.4C7,9,7.3,9.6,7.8,9.9l3.3,2v5H13v-6.5
  l-2.2-1.7l2.3-2.4L14.8,8.9z M5,11c-2.8,0-5,2.3-5,5s2.2,5,5,5s5-2.3,5-5S7.8,11,5,11z M5,19.6c-1.9,0-3.5-1.6-3.5-3.5
  s1.6-3.5,3.5-3.5s3.5,1.5,3.5,3.5S6.9,19.6,5,19.6z"/>
</svg>
